fs/database_lightning_20_filled.svg

<svg viewBox="0 0 20 20" fill="none" xmlns="http://www.w3.org/2000/svg" height="1em" width="1em">
  <path d="M10 8C13.3137 8 16 6.65685 16 5C16 3.34315 13.3137 2 10 2C6.68629 2 4 3.34315 4 5C4 6.65685 6.68629 8 10 8ZM14.6899 8.01575C15.1593 7.78102 15.6173 7.48234 16 7.12029V9H14.0849C13.4793 9 12.9332 9.36411 12.7003 9.92308L10.6169 14.9231C10.2053 15.9111 10.9312 17 12.0016 17H12.4708L12.2767 17.7765C11.5746 17.9206 10.8059 18 10 18C6.68629 18 4 16.6569 4 15V7.12029C4.38273 7.48234 4.8407 7.78102 5.31015 8.01575C6.56205 8.6417 8.22156 9 10 9C11.7784 9 13.4379 8.6417 14.6899 8.01575ZM13.1121 16C13.4374 16 13.676 16.3057 13.5972 16.6213L13.1627 18.3592C13.0419 18.8424 13.6248 19.1859 13.9889 18.846L18.8614 14.2983C19.3591 13.8338 19.0304 13 18.3497 13H17.9462C17.6049 13 17.3639 12.6657 17.4718 12.3419L18.0331 10.6581C18.141 10.3343 17.9 10 17.5588 10H14.0858C13.884 10 13.7019 10.1214 13.6243 10.3077L11.5409 15.3077C11.4037 15.637 11.6457 16 12.0025 16H13.1121Z" fill="#212121"/>
</svg>

<svg viewBox="0 0 20 20" fill="none" xmlns="http://www.w3.org/2000/svg" height="1em" width="1em">
  <path d="M10 8c3.314 0 6-1.343 6-3s-2.686-3-6-3-6 1.343-6 3 2.686 3 6 3Zm4.69.016c.47-.235.927-.534 1.31-.896V9h-1.915a1.5 1.5 0 0 0-1.385.923l-2.083 5A1.5 1.5 0 0 0 12.002 17h.469l-.194.776A11.38 11.38 0 0 1 10 18c-3.314 0-6-1.343-6-3V7.12c.383.362.84.661 1.31.896C6.562 8.642 8.222 9 10 9c1.778 0 3.438-.358 4.69-.984ZM13.112 16a.5.5 0 0 1 .485.621l-.434 1.738c-.121.483.462.827.826.487l4.872-4.548A.75.75 0 0 0 18.35 13h-.404a.5.5 0 0 1-.474-.658l.561-1.684A.5.5 0 0 0 17.56 10h-3.473a.5.5 0 0 0-.462.308l-2.083 5a.5.5 0 0 0 .461.692h1.11Z" fill="#212121"/>
</svg>
